X:178
T:Contented Farmer, The
M:6/8
L:1/8
B:Thompson's Compleat Collection of 200 Favourite Country Dances, vol. 3 (London, 1773)
Z:Transcribed and edited by Flynn Titford-Mock, 2007
Z:abc's:AK/Fiddler's Companion
K:G
G>AG B2G | d2G B2G | D>ED F2D | A2D F2D | G>AG B2G | d2G B2g | fed A2^c | d3 D3 :|
|: d>ed b2d | dcB c3 | cdc a2c | cBA B3 | G>AG B2G | d2B g2b | a2g "tr"fef | g3 G3 :|

